static/img/kroki/d21a57676fdcbf1f694dcaf58ca0f08a.svg

<?xml version="1.0" encoding="us-ascii" standalone="no"?><svg xmlns="http://www.w3.org/2000/svg" xmlns:xlink="http://www.w3.org/1999/xlink" contentStyleType="text/css" height="213px" preserveAspectRatio="none" style="width:325px;height:213px;" version="1.1" viewBox="0 0 325 213" width="325px" zoomAndPan="magnify"><defs/><g><!--class resource--><g id="elem_resource"><rect codeLine="23" fill="#3D176E" height="39.7891" id="resource" rx="2.5" ry="2.5" style="stroke:#000D19;stroke-width:0.5;" width="113" x="7" y="7"/><ellipse cx="22" cy="26.8945" fill="#ADD1B2" rx="11" ry="11" style="stroke:#181818;stroke-width:1.0;"/><path d="M24.9688,32.5352 Q24.3906,32.832 23.75,32.9727 Q23.1094,33.1289 22.4063,33.1289 Q19.9063,33.1289 18.5781,31.4883 Q17.2656,29.832 17.2656,26.707 Q17.2656,23.582 18.5781,21.9258 Q19.9063,20.2695 22.4063,20.2695 Q23.1094,20.2695 23.75,20.4258 Q24.4063,20.582 24.9688,20.8789 L24.9688,23.5977 Q24.3438,23.0195 23.75,22.7539 Q23.1563,22.4727 22.5313,22.4727 Q21.1875,22.4727 20.5,23.5508 Q19.8125,24.6133 19.8125,26.707 Q19.8125,28.8008 20.5,29.8789 Q21.1875,30.9414 22.5313,30.9414 Q23.1563,30.9414 23.75,30.6758 Q24.3438,30.3945 24.9688,29.8164 L24.9688,32.5352 Z " fill="#000000"/><text fill="#D9B8FF" font-family="Helvetica" font-size="17" lengthAdjust="spacing" textLength="71" x="41" y="32.7798">resource</text></g><!--class slack_conversation--><g id="elem_slack_conversation"><rect codeLine="26" fill="#3D176E" height="39.7891" id="slack_conversation" rx="2.5" ry="2.5" style="stroke:#000D19;stroke-width:0.5;" width="199" x="50" y="167.79"/><ellipse cx="65" cy="187.6845" fill="#ADD1B2" rx="11" ry="11" style="stroke:#181818;stroke-width:1.0;"/><path d="M67.9688,193.3252 Q67.3906,193.622 66.75,193.7627 Q66.1094,193.9189 65.4063,193.9189 Q62.9063,193.9189 61.5781,192.2783 Q60.2656,190.622 60.2656,187.497 Q60.2656,184.372 61.5781,182.7158 Q62.9063,181.0595 65.4063,181.0595 Q66.1094,181.0595 66.75,181.2158 Q67.4063,181.372 67.9688,181.6689 L67.9688,184.3877 Q67.3438,183.8095 66.75,183.5439 Q66.1563,183.2627 65.5313,183.2627 Q64.1875,183.2627 63.5,184.3408 Q62.8125,185.4033 62.8125,187.497 Q62.8125,189.5908 63.5,190.6689 Q64.1875,191.7314 65.5313,191.7314 Q66.1563,191.7314 66.75,191.4658 Q67.3438,191.1845 67.9688,190.6064 L67.9688,193.3252 Z " fill="#000000"/><text fill="#D9B8FF" font-family="Helvetica" font-size="17" lengthAdjust="spacing" textLength="157" x="84" y="193.5698">slack_conversation</text></g><!--class slack_resource--><g id="elem_slack_resource"><rect codeLine="29" fill="#3D176E" height="39.7891" id="slack_resource" rx="2.5" ry="2.5" style="stroke:#000D19;stroke-width:0.5;" width="163" x="155" y="7"/><ellipse cx="170" cy="26.8945" fill="#ADD1B2" rx="11" ry="11" style="stroke:#181818;stroke-width:1.0;"/><path d="M172.9688,32.5352 Q172.3906,32.832 171.75,32.9727 Q171.1094,33.1289 170.4063,33.1289 Q167.9063,33.1289 166.5781,31.4883 Q165.2656,29.832 165.2656,26.707 Q165.2656,23.582 166.5781,21.9258 Q167.9063,20.2695 170.4063,20.2695 Q171.1094,20.2695 171.75,20.4258 Q172.4063,20.582 172.9688,20.8789 L172.9688,23.5977 Q172.3438,23.0195 171.75,22.7539 Q171.1563,22.4727 170.5313,22.4727 Q169.1875,22.4727 168.5,23.5508 Q167.8125,24.6133 167.8125,26.707 Q167.8125,28.8008 168.5,29.8789 Q169.1875,30.9414 170.5313,30.9414 Q171.1563,30.9414 171.75,30.6758 Q172.3438,30.3945 172.9688,29.8164 L172.9688,32.5352 Z " fill="#000000"/><text fill="#D9B8FF" font-family="Helvetica" font-size="17" lengthAdjust="spacing" textLength="121" x="189" y="32.7798">slack_resource</text></g><!--reverse link resource to slack_conversation--><g id="link_resource_slack_conversation"><path codeLine="32" d="M82.4424,62.8776 C98.9724,93.3976 122.54,136.9 139.09,167.46 " fill="none" id="resource-backto-slack_conversation" style="stroke:#FFAF37;stroke-width:2.0;"/><polygon fill="none" points="73.87,47.05,77.1666,65.7351,87.7183,60.0201,73.87,47.05" style="stroke:#FFAF37;stroke-width:2.0;"/></g><!--reverse link slack_resource to slack_conversation--><g id="link_slack_resource_slack_conversation"><path codeLine="33" d="M217.3577,62.8341 C200.6277,93.3541 176.78,136.9 160.03,167.46 " fill="none" id="slack_resource-backto-slack_conversation" style="stroke:#FFAF37;stroke-width:2.0;"/><polygon fill="none" points="226.01,47.05,212.0963,59.95,222.6191,65.7182,226.01,47.05" style="stroke:#FFAF37;stroke-width:2.0;"/></g><!--SRC=[XPBDRi8m48JlUGfBd2CbHMs8r0j4gjeBgahlbMElmKfYHsi7H7_UlKcXoDW4ZjxvTdTcvOtaGA1fxPuqq9I09ZALL2r5sf0vejuLkjP89a9GCSryyKahUnDOqWR8CzHRi99HdtZVI5OfC8RSETA2icgDkbFyCDuYLQQNG5c7AcfgpDnQb6LdmJ73yt8cX4_wGoTJdcOF460QEU0HIPA4fxcFt5nrDVU9MCbF8AbxjAMs4DWCLlnHLrqEX6Co2FglZtfyfPnBjIRtJktju0aLu5bzjQ5SxmPQqDguQum516ttBHH1AiXdN6GNuPSnE6B3wGY2qHqo85zHz7EicRhl-M1QRVjFJAtKAbJF-qwln-yuZYyCYBokKUuN]--></g></svg>

<svg xmlns="http://www.w3.org/2000/svg" width="325" height="213" viewBox="0 0 325 213"><rect width="113" height="39.789" x="7" y="7" fill="#3D176E" rx="2.5" ry="2.5" style="stroke:#000d19;stroke-width:.5"/><circle cx="22" cy="26.895" r="11" fill="#ADD1B2" style="stroke:#181818;stroke-width:1"/><path d="M24.969 32.535q-.578.297-1.219.438-.64.156-1.344.156-2.5 0-3.828-1.64-1.312-1.657-1.312-4.782t1.312-4.781q1.328-1.656 3.828-1.656.703 0 1.344.156.656.156 1.219.453v2.719q-.625-.578-1.219-.844-.594-.281-1.219-.281-1.343 0-2.031 1.078-.687 1.062-.687 3.156t.687 3.172q.688 1.062 2.031 1.062.625 0 1.219-.265.594-.281 1.219-.86z"/><text x="41" y="32.78" fill="#D9B8FF" font-family="Helvetica" font-size="17" textLength="71">resource</text><rect width="199" height="39.789" x="50" y="167.79" fill="#3D176E" rx="2.5" ry="2.5" style="stroke:#000d19;stroke-width:.5"/><circle cx="65" cy="187.685" r="11" fill="#ADD1B2" style="stroke:#181818;stroke-width:1"/><path d="M67.969 193.325q-.578.297-1.219.438-.64.156-1.344.156-2.5 0-3.828-1.64-1.312-1.657-1.312-4.782t1.312-4.781q1.328-1.656 3.828-1.656.703 0 1.344.156.656.156 1.219.453v2.719q-.625-.578-1.219-.844-.594-.281-1.219-.281-1.344 0-2.031 1.078-.687 1.062-.687 3.156t.687 3.172q.688 1.062 2.031 1.062.625 0 1.219-.265.594-.281 1.219-.86z"/><text x="84" y="193.57" fill="#D9B8FF" font-family="Helvetica" font-size="17" textLength="157">slack_conversation</text><rect width="163" height="39.789" x="155" y="7" fill="#3D176E" rx="2.5" ry="2.5" style="stroke:#000d19;stroke-width:.5"/><circle cx="170" cy="26.895" r="11" fill="#ADD1B2" style="stroke:#181818;stroke-width:1"/><path d="M172.969 32.535q-.578.297-1.219.438-.64.156-1.344.156-2.5 0-3.828-1.64-1.312-1.657-1.312-4.782t1.312-4.781q1.328-1.656 3.828-1.656.703 0 1.344.156.656.156 1.219.453v2.719q-.625-.578-1.219-.844-.594-.281-1.219-.281-1.344 0-2.031 1.078-.687 1.062-.687 3.156t.687 3.172q.688 1.062 2.031 1.062.625 0 1.219-.265.594-.281 1.219-.86z"/><text x="189" y="32.78" fill="#D9B8FF" font-family="Helvetica" font-size="17" textLength="121">slack_resource</text><path fill="none" d="M82.442 62.878c16.53 30.52 40.098 74.022 56.648 104.582M73.87 47.05l3.297 18.685 10.551-5.715z" style="stroke:#ffaf37;stroke-width:2"/><g fill="none"><path d="M217.358 62.834c-16.73 30.52-40.578 74.066-57.328 104.626" style="stroke:#ffaf37;stroke-width:2"/><path d="m226.01 47.05-13.914 12.9 10.523 5.768z" style="stroke:#ffaf37;stroke-width:2"/></g></svg>
